X:4341
T:Monferrina di Frankie
O:england
C:La Ciapa Rusa
C:La Ciapa Rusa: Antologia
M:6/8
L:1/8
K:G
D2D|GDG BGB|d2d ded|fed cBA|B2G D2D|\
GDG BGB|d2d ded|fed cBA|G3:|
K:D
|:A2A|ABA GFE|F2D A2A|A2A ABc|d3 A2A|\
ABA GFE|F2D A2A|A2A GFE|D3:|


